Bloom-Colors/scalable/actions/view-pin-symbolic.svg

<svg width="16" height="16" version="1.1" xmlns="http://www.w3.org/2000/svg">
<path d="m8.5254 0.13284-0.0293 0.02929c-0.4002 0.40013-0.624 0.93107-0.627 1.4942-0.0028 0.5224 0.184 1.0157 0.5274 1.4003l-3.3399 3.3399c-0.3846-0.3434-0.8779-0.5282-1.4004-0.5254-0.563 3e-3 -1.094 0.2248-1.4941 0.625l-0.0293 0.0293c-0.1753 0.1752-0.1774 0.4594-0.0039 0.6328l2.5898 2.5879-4.3261 4.3279-0.39257 1.926 1.9258-0.393 4.3281-4.326 2.5879 2.59c0.0867 0.087 0.2022 0.13 0.3164 0.129s0.2289-0.045 0.3164-0.133l0.0293-0.029c0.4002-0.4 0.6221-0.931 0.6251-1.494 3e-3 -0.523-0.1842-1.016-0.5274-1.401l3.3414-3.3414c0.385 0.3432 0.878 0.5301 1.401 0.5273 0.563-3e-3 1.094-0.2248 1.494-0.625l0.029-0.0293c0.088-0.0875 0.132-0.2022 0.133-0.3164s-0.042-0.2297-0.129-0.3164l-6.7128-6.7129c-0.0867-0.08674-0.2021-0.12893-0.3164-0.12893s-0.2288 0.04517-0.3164 0.13284z" fill="#666"/>
</svg>

<svg xmlns="http://www.w3.org/2000/svg" width="16" height="16" version="1.1">
 <path style="fill:#444444" d="M 8.5254,0.13284 8.4961,0.16213 C 8.0959,0.56226 7.8721,1.0932 7.8691,1.6563 7.8663,2.1787 8.0531,2.672 8.3965,3.0566 L 5.0566,6.3965 C 4.672,6.0531 4.1787,5.8683 3.6562,5.8711 3.0932,5.8741 2.5622,6.0959 2.1621,6.4961 L 2.1328,6.5254 C 1.9575,6.7006 1.9554,6.9848 2.1289,7.1582 L 4.7187,9.7461 0.39257,14.074 0,16 1.9258,15.607 6.2539,11.281 8.8418,13.871 C 8.9285,13.958 9.044,14.001 9.1582,14 9.2724,13.999 9.3871,13.955 9.4746,13.867 L 9.5039,13.838 C 9.9041,13.438 10.126,12.907 10.129,12.344 10.132,11.821 9.9448,11.328 9.6016,10.943 L 12.943,7.6016 C 13.328,7.9448 13.821,8.1317 14.344,8.1289 14.907,8.1259 15.438,7.9041 15.838,7.5039 L 15.867,7.4746 C 15.955,7.3871 15.999,7.2724 16,7.1582 16.001,7.044 15.958,6.9285 15.871,6.8418 L 9.1582,0.12893 C 9.0715,0.04219 8.9561,0 8.8418,0 8.7275,0 8.613,0.04517 8.5254,0.13284 Z"/>
</svg>
